X:23
%%scale .6
%%measurenb 0.
T:Holly Bush/ Ravelled Hank of Yarn/ Speed the Plough
T:The Holly Bush
L:1/8
M:4/4
K:Dmix
||:A2FA DAFG|ABde fded|cGG2 EGG2|cedc AGFG|
A2FA DAFG|ABde fded|cGG2 cedc|AcGE D2FG:||:
Add^c defg|adde dcAc|GccB cdeg|aged cAGc|
Add^c defg|adde dcAc|cGG2 cedc|AcGE D2FG:||
T:The Ravelled Hank of Yarn
L:1/8
M:4/4
K:G
||:B2Bd A3B|GBBB GBBB|dAAA d2eg|fdcA AGGA|
B2Bd A3B|GBBB GBBB|dAAA d2eg|fdcA AGG2:||:
d2G2 dGBd|g2ga bage|dGGG d2eg|fdcA AGGB|
dGGG dGBd|g3a bgaf|g2ga bgag|fdcA AG3:||
T:Speed the Plough
K:D
||:d3A BAFB|AFF2 EFDF|F2AF G2BG|ABde fgfe|
d3A BAFB|AFF2 EFDF|F2AF G2BG|ABde fdd2:||
faaf afdf|gefd edBd|faab afdB|ABde fee2|
faaf afdf|gefd edBd|F2AF G2BG|1ABde fdde:||2ABde fgfe|

